icons/album.svg

<svg width="24" height="24" viewBox="0 0 24 24" fill="none" xmlns="http://www.w3.org/2000/svg">
<path d="M2 8C2 4.68629 4.68629 2 8 2H16C19.3137 2 22 4.68629 22 8V16C22 19.3137 19.3137 22 16 22H8C4.68629 22 2 19.3137 2 16V8Z" stroke="black" stroke-width="2" stroke-linecap="round" stroke-linejoin="round"/>
<path d="M12 2.5V10.3342C12 10.5473 12 10.6539 12.0437 10.7086C12.0817 10.7562 12.1393 10.7839 12.2002 10.7839C12.2703 10.7838 12.3535 10.7172 12.5199 10.5841L14.3001 9.15992C14.3714 9.10285 14.4071 9.07431 14.4467 9.06337C14.4816 9.05371 14.5184 9.05371 14.5533 9.06337C14.5929 9.07431 14.6286 9.10285 14.6999 9.15992L16.4801 10.5841C16.6465 10.7172 16.7297 10.7838 16.7998 10.7839C16.8607 10.7839 16.9183 10.7562 16.9563 10.7086C17 10.6539 17 10.5473 17 10.3342V2.5" stroke="black" stroke-width="2" stroke-linecap="round" stroke-linejoin="round"/>
</svg>

<svg xmlns="http://www.w3.org/2000/svg" width="24" height="24" viewBox="0 0 24 24" fill="none" stroke="currentColor" stroke-width="2" stroke-linecap="round" stroke-linejoin="round">
<path d="M2 8a6 6 0 0 1 6-6h8a6 6 0 0 1 6 6v8a6 6 0 0 1-6 6H8a6 6 0 0 1-6-6z"/><path d="M12 2.5v7.834c0 .213 0 .32.044.375a.2.2 0 0 0 .156.075c.07 0 .154-.067.32-.2L14.3 9.16a.5.5 0 0 1 .147-.097.2.2 0 0 1 .106 0c.04.011.076.04.147.097l1.78 1.424c.166.133.25.2.32.2a.2.2 0 0 0 .156-.075c.044-.055.044-.162.044-.375V2.5"/>
</svg>
